views/img/postepay.svg

<?xml version="1.0" encoding="UTF-8"?>
<svg width="75px" height="48px" viewBox="0 0 75 48" version="1.1" xmlns="http://www.w3.org/2000/svg" xmlns:xlink="http://www.w3.org/1999/xlink">
    <title>Logo_postepay</title>
    <g id="Logo_postepay" stroke="none" stroke-width="1" fill="none" fill-rule="evenodd">
        <g id="Group-6">
            <rect id="Rectangle-Copy" stroke="#888888" fill="#F4E624" x="0.5" y="0.5" width="74" height="47" rx="6"></rect>
            <path d="M57.939591,27.149706 C56.8350825,28.1362815 54.949926,28.469883 53.833191,27.354036 C53.3639385,26.885139 53.125002,26.308878 53.038014,25.655616 C52.8899628,24.545085 53.3707305,23.734911 54.287739,23.143116 C55.587483,22.3043565 57.393864,22.363707 58.905609,22.3690215 C58.9284633,22.037073 59.0058846,21.7074855 59.0058846,21.3692775 C59.0058255,20.811147 57.9012591,20.6065215 57.5659431,21.031896 C57.4255691,21.2099475 57.3066906,21.5538255 57.2003331,21.765951 L57.1526756,21.8610888 L54.3958106,21.8610888 L54.4239798,21.6643173 C54.4844523,21.2416008 54.6445503,20.8536678 54.9036843,20.5140423 C55.5708888,19.6396728 56.7547743,19.2512073 57.8123793,19.1619753 C58.8478518,19.0746329 60.2310993,19.2523887 61.0519143,19.9461093 C61.8319728,20.6054598 61.9058508,21.9712293 61.6913043,22.9006443 L61.0516188,25.6716843 C60.8995518,26.3307393 60.8432133,27.0885933 60.8432133,27.7649493 L60.8432133,27.9372723 L57.9395883,27.9372723 L57.9395883,27.1497138 L57.939591,27.149706 Z M58.576146,23.779731 L58.218744,23.779731 C57.885909,23.779731 57.526914,23.7709908 57.2074845,23.8776444 C56.9500035,23.9636286 56.6174055,24.0671529 56.4218145,24.2628024 L56.4068145,24.2778615 L56.3885664,24.2888457 C56.2416963,24.3768969 56.1184479,24.5032752 56.0230749,24.6447117 C55.8066969,24.9655587 55.6052604,25.6791807 56.0575631,25.9055382 L56.0826024,25.9180579 L56.1023859,25.9377823 C56.225693,26.0612076 56.4539994,26.1000073 56.6200044,26.1000073 C56.8144134,26.1000073 57.0041574,26.1013656 57.1826229,26.0122515 C57.4497879,25.8789051 57.6863034,25.801425 57.8624649,25.5372705 L57.8719137,25.5230973 L57.883961,25.51105 C58.355162,25.0397905 58.5479765,24.427153 58.5761465,23.779735 L58.576146,23.779731 Z M63.900261,27.726201 L62.383551,19.278126 L65.192391,19.278126 L65.891013,24.567156 L68.884818,19.278126 L71.633358,19.278126 L66.363633,28.170171 L64.822878,30.922431 L61.731573,30.922431 L63.900258,27.726186 L63.900261,27.726201 Z M47.567661,19.978761 C48.265692,19.3635255 49.0399635,18.9581115 50.026656,18.9581115 C50.7774825,18.9581115 51.559851,19.187481 52.073691,19.7617335 C52.6034745,20.3538195 52.7890845,21.1128555 52.8631995,21.8856435 C52.8842231,22.105152 52.8835736,22.3249545 52.8836325,22.5452295 C52.8840459,23.831154 52.5973335,25.1806245 51.8752665,26.2621545 C50.927196,27.682194 48.6292365,28.6097145 47.0615715,27.7006785 C46.7475165,27.518553 46.476336,27.25062 46.264209,26.9478435 L45.368106,31.0292085 L42.563571,31.0292085 L42.6094569,30.819858 C43.4335704,27.063423 44.2004019,23.293998 44.9536569,19.522788 L44.9812947,19.3841856 L47.6134947,19.3841856 L47.5676679,19.9787526 L47.567661,19.978761 Z M47.299137,21.985101 C46.85274,22.798113 46.736637,23.749611 46.787307,24.664311 C46.8224448,25.2986805 47.0669925,26.0535825 47.8073655,26.100708 C48.5389995,26.1471845 49.1438415,25.520373 49.4455005,24.916299 C49.671387,24.464055 49.8647925,23.9648025 49.964241,23.467677 C50.0988276,22.794921 50.3442015,21.609747 49.7980605,21.064377 C49.003356,20.2706175 47.7174255,21.223353 47.2991505,21.9851055 L47.299137,21.985101 Z M10.706487,27.486081 C9.7876485,28.1641515 8.131512,28.207026 7.128102,27.7057665 C6.766626,27.5252355 6.4813305,27.27366 6.226566,26.977971 L5.316822,30.922446 L3.366642,30.922446 L5.893017,19.278141 L7.605147,19.278141 L7.5241824,20.2480035 C8.2341429,19.5857595 9.2345424,19.171488 10.1895774,19.1715465 C10.9809744,19.1715465 11.6640654,19.401921 12.2301024,19.9681995 C12.8275044,20.566014 13.1865594,21.247569 13.2399444,22.1047545 C13.2818736,22.777569 13.2056925,23.433495 13.0202589,24.0816795 C12.8322864,24.7390815 12.6219909,25.3568565 12.2538414,25.9384245 C11.8502004,26.5761015 11.3895114,27.1397835 10.7064864,27.4860795 L10.706487,27.486081 Z M11.0952465,23.650041 C11.294499,23.1523245 11.2962705,22.6416165 11.2962705,22.115436 C11.2962705,21.6548055 11.1005625,21.289491 10.8055815,20.949333 C9.8452275,19.841931 8.0605815,20.8909866 7.5750315,21.972699 C7.0245195,23.1992145 6.7378665,23.718189 6.7378665,25.099899 C6.7378665,25.558107 6.9068235,25.8370245 7.220229,26.15049 C7.532808,26.4631275 7.8351105,26.5269075 8.27076,26.5269075 C9.344736,26.5269075 9.923595,26.1316515 10.46784,25.224801 C10.754907,24.746454 10.9769535,24.229131 11.0861475,23.680446 L11.0892774,23.6648555 L11.095242,23.6500326 L11.0952465,23.650041 Z M21.0086565,19.849956 C21.663519,20.385054 21.9630465,21.0596415 22.0311375,21.888006 C22.0912556,22.6195815 22.0132439,23.376195 21.811512,24.081666 C21.614622,24.770013 21.3217095,25.439757 20.9385,26.045076 C20.5268265,26.6953905 20.066787,27.1484025 19.377315,27.4930485 C18.112473,28.1252925 15.69807,28.1277735 14.601765,27.147222 C14.0011155,26.6099385 13.691784,25.7993475 13.5867255,25.016217 C13.4819618,24.2351535 13.5893239,23.461467 13.8045795,22.707687 C14.0097375,21.9892815 14.3271585,21.207447 14.795466,20.621982 C16.1658405,18.908847 19.278576,18.436347 21.008661,19.8499545 L21.0086565,19.849956 Z M16.2185115,26.358486 C16.581996,26.689608 17.0193585,26.852541 17.5081575,26.7483675 C19.0188525,26.4266355 20.2026075,23.5019325 20.1944025,22.1165025 C20.1915088,21.626463 20.0631821,21.20292 19.711863,20.851542 C18.6788715,19.818018 17.061588,20.8876247 16.463598,21.8841795 C16.150074,22.40664 15.946866,22.926384 15.8462355,23.5297545 C15.7050938,24.375837 15.5076135,25.7108895 16.218519,26.3584995 L16.2185115,26.358486 Z M27.7878165,21.290136 C27.7294701,21.111966 27.615081,20.749545 27.45693,20.670471 C27.1845675,20.5341127 26.877717,20.4752355 26.574411,20.4752355 C26.1593715,20.4752355 25.843191,20.5355898 25.4976585,20.7661995 C25.278564,20.912479 25.0319505,21.1344075 25.0491345,21.423483 C25.0819101,21.974172 25.9783665,22.5067305 26.429961,22.703916 C27.0707085,22.983483 27.901614,23.4123405 28.401576,23.9124195 C28.74132,24.252105 28.9510245,24.7154505 28.98504,25.1945055 C29.0485242,26.086002 28.6873425,26.7596955 27.951516,27.2674005 C27.1397445,27.8274795 26.053371,28.044093 25.081851,28.044093 C24.3272445,28.044093 23.513766,27.878148 22.861026,27.486672 C22.349904,27.1800585 21.973605,26.7556875 21.8975415,26.1486015 C21.8446872,25.7267715 21.9445494,25.3598025 22.0360848,24.955275 L22.0664982,24.8209836 L24.0812832,24.8209836 L23.9567951,25.0703736 C23.8004171,25.3834251 23.8552793,26.1592326 24.1999841,26.3317911 C24.5047091,26.4844491 24.8514806,26.5269096 25.1886251,26.5269096 C25.6352006,26.5269096 26.2010666,26.4581694 26.5944911,26.2300401 C26.9354756,26.0323236 27.0416561,25.8058476 27.0416561,25.4200401 C27.0416561,25.2186621 26.9089002,25.0385436 26.7727196,24.9023046 C26.4863021,24.6160056 25.9127591,24.3522066 25.5457901,24.1922856 C24.9707111,23.9415381 24.1272866,23.5363011 23.6807651,23.0898441 C23.3411396,22.7502771 23.1319661,22.2863991 23.0978906,21.8076981 C23.0406071,21.0021276 23.3072411,20.3973441 23.8997996,19.8561681 C24.6207446,19.1977626 25.5222746,19.0647111 26.4676346,19.0647111 C27.1557446,19.0647111 28.1075996,19.1245339 28.6959596,19.5203211 C29.2176521,19.8712266 29.4985181,20.2933521 29.6217671,20.9085291 L29.6251332,20.9253007 L29.6251332,21.8610877 L27.7878132,21.8610877 L27.7878132,21.2901427 L27.7878165,21.290136 Z M31.4743965,20.7952545 L29.9676015,20.7952545 L30.390318,19.384191 L31.8727785,19.384191 L32.291775,17.498331 L34.27107,16.9707915 L33.7217985,19.2781365 L35.5258785,19.2781365 L35.2434765,20.6886675 L33.4273515,20.6886675 C33.3482177,21.023865 33.2563875,21.359652 33.172233,21.6928995 C33.027666,22.265085 32.8884735,22.8389235 32.7652245,23.4160695 C32.6697324,23.863353 32.218374,26.0235945 32.559063,26.3639895 C32.6690828,26.4738911 33.034338,26.5269225 33.18363,26.5269225 C33.2744568,26.5269225 33.36552,26.5206627 33.455874,26.5116272 C33.7098105,26.4864107 34.000539,26.4201507 34.2499875,26.4201507 L34.4757555,26.4201507 L34.0614255,27.9372807 L33.9297917,27.9372807 C33.5344772,27.9372807 33.1323107,28.0053122 32.7378827,28.0380878 C32.1052247,28.0905878 31.5021542,28.0588752 30.9558977,27.6950363 C29.9939492,27.0542888 30.3502277,25.6685063 30.5640677,24.7417463 L31.4744027,20.7952763 L31.4743965,20.7952545 Z M36.8328165,23.6737845 C36.0049815,26.8525995 39.7744065,27.0192495 40.2650415,25.0580955 L40.2976991,24.9275836 L42.4657241,24.9275836 L42.412161,25.1417761 C42.1902915,26.0286061 41.713539,26.6634511 40.9538535,27.1627561 C39.57279,28.0703146 37.1822385,28.2216151 35.8474785,27.1532483 C35.216592,26.6483273 34.9382655,25.9044683 34.8248805,25.1247083 C34.7156286,24.3731138 34.8480302,23.6491568 35.042499,22.9233083 C35.542932,21.0561683 36.986829,19.2639533 38.980824,18.9447683 C39.166611,18.9150045 39.354525,18.8992368 39.5426745,18.8979375 C42.2280945,18.880221 43.5457245,21.1002225 42.7279245,23.5558575 L42.6885938,23.6737905 L36.8328038,23.6737905 L36.8328165,23.6737845 Z M41.0512965,22.476087 C41.593659,20.544042 39.3343815,19.619892 37.9958415,20.958252 C37.5547005,21.399393 37.3242075,21.88335 37.2209205,22.476087 L41.0512905,22.476087 L41.0512965,22.476087 Z" id="_414284472" fill="#1D60B4"></path>
        </g>
    </g>
</svg>

<?xml version="1.0" encoding="UTF-8" standalone="no"?>
<svg
   xmlns:dc="http://purl.org/dc/elements/1.1/"
   xmlns:cc="http://creativecommons.org/ns#"
   xmlns:rdf="http://www.w3.org/1999/02/22-rdf-syntax-ns#"
   xmlns:svg="http://www.w3.org/2000/svg"
   xmlns="http://www.w3.org/2000/svg"
   xmlns:sodipodi="http://sodipodi.sourceforge.net/DTD/sodipodi-0.dtd"
   xmlns:inkscape="http://www.inkscape.org/namespaces/inkscape"
   width="35"
   height="22"
   viewBox="0 0 35 22"
   version="1.1"
   id="svg8"
   sodipodi:docname="Logo_postepay.svg"
   inkscape:version="1.0.2 (e86c870879, 2021-01-15)">
  <metadata
     id="metadata14">
    <rdf:RDF>
      <cc:Work
         rdf:about="">
        <dc:format>image/svg+xml</dc:format>
        <dc:type
           rdf:resource="http://purl.org/dc/dcmitype/StillImage" />
        <dc:title>Logo_postepay</dc:title>
      </cc:Work>
    </rdf:RDF>
  </metadata>
  <defs
     id="defs12" />
  <sodipodi:namedview
     pagecolor="#ffffff"
     bordercolor="#666666"
     borderopacity="1"
     objecttolerance="10"
     gridtolerance="10"
     guidetolerance="10"
     inkscape:pageopacity="0"
     inkscape:pageshadow="2"
     inkscape:window-width="1920"
     inkscape:window-height="1006"
     id="namedview10"
     showgrid="false"
     inkscape:zoom="15.253333"
     inkscape:cx="37.5"
     inkscape:cy="24"
     inkscape:window-x="0"
     inkscape:window-y="0"
     inkscape:window-maximized="1"
     inkscape:current-layer="svg8" />
  <title
     id="title2">Logo_postepay</title>
  <g
     id="Logo_postepay"
     stroke="none"
     stroke-width="1"
     fill="none"
     fill-rule="evenodd"
     transform="matrix(0.46579015,0,0,0.45367422,0.03286948,-0.04991326)">
    <g
       id="Group-6">
      <rect
         id="Rectangle-Copy"
         stroke="#888888"
         fill="#f4e624"
         x="0.5"
         y="0.5"
         width="74"
         height="47"
         rx="6" />
      <path
         d="m 57.939591,27.149706 c -1.104509,0.986575 -2.989665,1.320177 -4.1064,0.20433 -0.469252,-0.468897 -0.708189,-1.045158 -0.795177,-1.69842 -0.148051,-1.110531 0.332716,-1.920705 1.249725,-2.5125 1.299744,-0.83876 3.106125,-0.779409 4.61787,-0.774095 0.02285,-0.331948 0.100276,-0.661536 0.100276,-0.999744 -6e-5,-0.55813 -1.104626,-0.762756 -1.439942,-0.337381 -0.140374,0.178051 -0.259252,0.521929 -0.36561,0.734055 l -0.04766,0.09514 h -2.756865 l 0.02817,-0.196772 c 0.06047,-0.422716 0.22057,-0.810649 0.479704,-1.150275 0.667205,-0.874369 1.85109,-1.262835 2.908695,-1.352067 1.035473,-0.08734 2.41872,0.09041 3.239535,0.784134 0.780059,0.659351 0.853937,2.02512 0.63939,2.954535 l -0.639685,2.77104 c -0.152067,0.659055 -0.208406,1.416909 -0.208406,2.093265 v 0.172323 h -2.903625 v -0.787558 z m 0.636555,-3.369975 h -0.357402 c -0.332835,0 -0.69183,-0.0087 -1.01126,0.09791 -0.257481,0.08599 -0.590079,0.189509 -0.785669,0.385158 l -0.015,0.01506 -0.01825,0.01098 c -0.14687,0.08805 -0.270118,0.214429 -0.365491,0.355866 -0.216378,0.320847 -0.417815,1.034469 0.03449,1.260826 l 0.02504,0.01252 0.01978,0.01972 c 0.123307,0.123426 0.351613,0.162225 0.517618,0.162225 0.194409,0 0.384153,0.0014 0.562619,-0.08776 0.267165,-0.133347 0.50368,-0.210827 0.679842,-0.474981 l 0.0094,-0.01417 0.01205,-0.01205 c 0.471201,-0.47126 0.664015,-1.083897 0.692185,-1.731315 z m 5.324115,3.94647 -1.51671,-8.448075 h 2.80884 l 0.698622,5.28903 2.993805,-5.28903 h 2.74854 l -5.269725,8.892045 -1.540755,2.75226 h -3.091305 l 2.168685,-3.196245 z m -16.3326,-7.74744 c 0.698031,-0.615235 1.472302,-1.02065 2.458995,-1.02065 0.750826,0 1.533195,0.22937 2.047035,0.803622 0.529783,0.592086 0.715394,1.351122 0.789508,2.12391 0.02102,0.219509 0.02038,0.439311 0.02043,0.659587 4.14e-4,1.285924 -0.286299,2.635394 -1.008365,3.716924 -0.948071,1.42004 -3.246031,2.34756 -4.813696,1.438524 -0.314054,-0.182125 -0.585235,-0.450058 -0.797362,-0.752835 l -0.896103,4.081365 h -2.804535 l 0.04589,-0.20935 c 0.824113,-3.756435 1.590945,-7.52586 2.3442,-11.29707 l 0.02764,-0.138602 h 2.6322 l -0.04583,0.594567 z m -0.268524,2.00634 c -0.446397,0.813012 -0.5625,1.76451 -0.51183,2.67921 0.03514,0.634369 0.279685,1.389271 1.020059,1.436397 0.731634,0.04648 1.336475,-0.580335 1.638135,-1.184409 0.225886,-0.452244 0.419291,-0.951497 0.51874,-1.448622 0.134587,-0.672756 0.37996,-1.85793 -0.166181,-2.4033 -0.794704,-0.79376 -2.080635,0.158976 -2.498909,0.920728 z m -36.59265,5.50098 C 9.7876485,28.164151 8.131512,28.207026 7.128102,27.705766 6.766626,27.525235 6.4813305,27.27366 6.226566,26.977971 L 5.316822,30.922446 H 3.366642 L 5.893017,19.278141 h 1.71213 l -0.080965,0.969862 c 0.7099605,-0.662243 1.71036,-1.076515 2.665395,-1.076456 0.791397,0 1.474488,0.230374 2.040525,0.796652 0.597402,0.597815 0.956457,1.27937 1.009842,2.136555 0.04193,0.672815 -0.03425,1.328741 -0.219685,1.976925 -0.187973,0.657402 -0.398268,1.275177 -0.766418,1.856745 -0.403641,0.637677 -0.86433,1.201359 -1.547355,1.547655 z m 0.38876,-3.83604 c 0.199252,-0.497717 0.201024,-1.008424 0.201024,-1.534605 0,-0.460631 -0.195708,-0.825945 -0.490689,-1.166103 -0.9603545,-1.107402 -2.7450005,-0.05835 -3.2305505,1.023366 -0.550512,1.226515 -0.837165,1.74549 -0.837165,3.1272 0,0.458208 0.168957,0.737125 0.4823625,1.050591 0.312579,0.312637 0.6148815,0.376417 1.050531,0.376417 1.073976,0 1.652835,-0.395256 2.19708,-1.302106 0.287067,-0.478347 0.509114,-0.99567 0.618307,-1.544355 l 0.0031,-0.01559 0.006,-0.01482 z m 9.913409,-3.800085 c 0.654863,0.535098 0.95439,1.209686 1.022481,2.03805 0.06012,0.731575 -0.01789,1.488189 -0.219625,2.19366 -0.19689,0.688347 -0.489803,1.358091 -0.873012,1.96341 -0.411674,0.650314 -0.871713,1.103326 -1.561185,1.447972 -1.264842,0.632244 -3.679245,0.634725 -4.77555,-0.345826 -0.60065,-0.537284 -0.909981,-1.347875 -1.015039,-2.131005 -0.104764,-0.781064 0.0026,-1.55475 0.217853,-2.30853 0.205159,-0.718406 0.522579,-1.50024 0.990887,-2.085705 1.370375,-1.713135 4.48311,-2.185635 6.213195,-0.772028 z m -4.790144,6.50853 c 0.363484,0.331122 0.800846,0.494055 1.289645,0.389881 1.510696,-0.321732 2.69445,-3.246435 2.686245,-4.631865 -0.0029,-0.490039 -0.13122,-0.913582 -0.482539,-1.26496 -1.032992,-1.033524 -2.650275,0.03608 -3.248265,1.032637 -0.313524,0.522461 -0.516732,1.042205 -0.617362,1.645575 -0.141142,0.846083 -0.338622,2.181135 0.372283,2.828745 z m 11.569305,-5.06835 c -0.05835,-0.17817 -0.172736,-0.540591 -0.330887,-0.619665 -0.272363,-0.136358 -0.579213,-0.195236 -0.882519,-0.195236 -0.41504,0 -0.73122,0.06035 -1.076753,0.290964 -0.219094,0.14628 -0.465708,0.368208 -0.448524,0.657284 0.03278,0.550689 0.929232,1.083247 1.380827,1.280433 0.640747,0.279567 1.471653,0.708424 1.971615,1.208503 0.339744,0.339686 0.549448,0.803031 0.583464,1.282087 0.06348,0.891496 -0.297698,1.565189 -1.033524,2.072894 -0.811772,0.560079 -1.898145,0.776693 -2.869665,0.776693 -0.754607,0 -1.568085,-0.165945 -2.220825,-0.557421 -0.511122,-0.306614 -0.887421,-0.730985 -0.963485,-1.33807 -0.05285,-0.42183 0.04701,-0.7888 0.138544,-1.193327 l 0.03041,-0.134291 h 2.014785 l -0.124488,0.24939 c -0.156378,0.313051 -0.101516,1.088859 0.243189,1.261417 0.304725,0.152658 0.651497,0.195119 0.988641,0.195119 0.446576,0 1.012442,-0.06874 1.405866,-0.29687 0.340985,-0.197716 0.447165,-0.424192 0.447165,-0.81 0,-0.201378 -0.132756,-0.381496 -0.268936,-0.517735 -0.286418,-0.286299 -0.859961,-0.550098 -1.22693,-0.710019 -0.575079,-0.250748 -1.418503,-0.655985 -1.865025,-1.102442 -0.339625,-0.339567 -0.548799,-0.803445 -0.582874,-1.282146 -0.05728,-0.80557 0.20935,-1.410354 0.801909,-1.95153 0.720945,-0.658405 1.622475,-0.791457 2.567835,-0.791457 0.68811,0 1.639965,0.05982 2.228325,0.45561 0.521692,0.350906 0.802558,0.773031 0.925807,1.388208 l 0.0034,0.01677 v 0.935787 h -1.83732 v -0.570945 z m 3.686579,-0.494882 h -1.506795 l 0.422717,-1.411063 h 1.48246 l 0.418997,-1.88586 1.979295,-0.52754 -0.549272,2.307345 h 1.80408 l -0.282402,1.410531 h -1.816125 c -0.07913,0.335198 -0.170963,0.670985 -0.255118,1.004232 -0.144567,0.572186 -0.283759,1.146024 -0.407008,1.72317 -0.09549,0.447284 -0.546851,2.607526 -0.206162,2.94792 0.11002,0.109902 0.475275,0.162934 0.624567,0.162934 0.09083,0 0.18189,-0.0063 0.272244,-0.0153 0.253937,-0.02522 0.544665,-0.09148 0.794114,-0.09148 h 0.225767 l -0.41433,1.51713 h -0.131633 c -0.395315,0 -0.797481,0.06803 -1.191909,0.100807 -0.632658,0.0525 -1.235729,0.02079 -1.781985,-0.343052 -0.961949,-0.640747 -0.60567,-2.02653 -0.39183,-2.95329 l 0.910335,-3.94647 z m 5.35842,2.87853 c -0.827835,3.178815 2.94159,3.345465 3.432226,1.384311 l 0.03266,-0.130511 h 2.168025 l -0.05356,0.214192 c -0.22187,0.88683 -0.698622,1.521675 -1.458308,2.02098 -1.381063,0.907559 -3.771615,1.058859 -5.106375,-0.0095 -0.630886,-0.504921 -0.909213,-1.24878 -1.022598,-2.02854 -0.109251,-0.751594 0.02315,-1.475551 0.217619,-2.2014 0.500433,-1.86714 1.94433,-3.659355 3.938325,-3.97854 0.185787,-0.02976 0.373701,-0.04553 0.56185,-0.04683 2.68542,-0.01772 4.00305,2.202285 3.18525,4.65792 l -0.03933,0.117933 h -5.85579 z m 4.21848,-1.197697 c 0.542363,-1.932045 -1.716915,-2.856195 -3.055455,-1.517835 -0.44114,0.441141 -0.671634,0.925098 -0.774921,1.517835 h 3.83037 z"
         id="_414284472"
         fill="#1d60b4" />
    </g>
  </g>
</svg>
